X: 26883
T: Minnie Foster's
R: hornpipe
M: 4/4
K: Fmajor
AB|cFAc dF(3Bcd|cFAc (3fgf ef|gceg beag|(3fag(3fed c2AB|
cFAc dF(3Bcd|cFAc (3fgf ef|gebg ecBG|(3FGF EG F2:|
ef|gceg be(3gab|acfg acfa|gc'=ba agfd|c2 c'2 c2 A,B,|
(3CB,C A,CFA c^c|(3d^cd DFBd fb|acfa gbeg|(3fgf eg f2:|

